X:1
T:Early in the Spring
M:3/4
L:1/8
K:A
 z2 z A,A, B,| D3 DB,/2-A,/2 B,| A,2 z DE F| A3F/2-E/2 DF| E2 z DE F|\
 A3F/2-E/2 DD| F3 A,B, D| E2 F- F/2E/2 DB,| A,3 z2 z|
